!!!!SEGMENT: pl-kk--kk-i-276--003_anonim-missa-rorate-caeli-desuper-alleluia-ave-maria.krn
!!!id: 17xx:2086
!!!COM: Anonim
!!!OTL: Missa Rorate caeli desuper – Alleluia Ave Maria
!!!PDT:
!!!SMS-siglum: PL-Kk
!!!SMS-shelfmark: Kk.I.276
!!!NIFC-rismID: 1001147328
!!!URL-scan: http://repozytorium.nifc.pl/skany/pl-kk-nut--i-276
!!!ONB-nifc: UWAGA: części: 1. Initiale (Rorate caeli + Benedixisti + Gloria patri), 2. Kyrie, 3. Alleluia Ave Maria
!!!SMS-variant:
!!!SMS-altvar:
**kern	**fba	**text
*I"Baſso Ripieno.	*	*
*I'B rip	*	*
*clefF4	*	*
*k[bn]	*	*
*M2/1	*	*
*met(C|)	*	*
*>[A,B,A]	*	*
=1-	=1-	=1-
*>A	*	*
!LO:TX:a:t=P:problem:znaki BBn Bn od drugiej pięciolinii	!	!
1G	n	Al-
*lig	*	*
1C	.	-le-
=2-	=2-	=2-
1D	.	.
*Xlig	*	*
2GG/	.	.
2BBn/	.	.
=3-	=3-	=3-
!LO:TX:t=P:problem:kreska pseudotaktowa	!	!
1AA	.	-lu-
!LO:TX:a:t=P:problem:rozdzielacz słów:global	!	!
2GG,</	.	-ia
*2\right	*	*
2G\	.	al-
=4-	=4-	=4-
4C/	.	.
4D/	.	.
4E/	.	.
!LO:TX:t=P:problem:kreska pseudotaktowa	!	!
4F/	.	.
2G\	.	-le-
2GG/	.	.
=5-	=5-	=5-
2D/	.	-lu-
2C#X/	.	.
!LO:TX:t=P:problem:kreska pseudotaktowa	!	!
1D	.	.
!LO:LB:g=original	!	!
=6-	=6-	=6-
2GG,</	.	-ia
2.Cny/	.	al-
4D\	.	.
!LO:TX:t=P:problem:kreska pseudotaktowa	!	!
[2E\	.	.
=7-	=7-	=7-
2E]	.	.
2BBn/	.	-le-
1C	.	-lu-
=8-	=8-	=8-
0GGl;	.	-ia
=9||	=9||	=9||
*>B	*	*
*M2/1	*	*
*met(C|)	*	*
*lig	*	*
1GG	.	A-
1C	.	.
=10-	=10-	=10-
!LO:TX:t=P:problem:kreska pseudotaktowa	!	!
1D	.	.
*Xlig	*	*
2GG/	.	-ve
4C/	.	Ma-
!LO:TX:t=P:problem:kreska pseudotaktowa	!	!
4D/	.	.
=11-	=11-	=11-
4E\	.	-ri-
4F\	.	.
2.G\	.	.
.	.	.
4Fn\	.	-a
!LO:TX:t=P:problem:kreska pseudotaktowa	!	!
2F\	.	A-
=12-	=12-	=12-
1G	.	.
!LO:TX:a:t=P:problem:wątpliwa wysokość dżwięku 1C lub 1D	!	!
1C	.	-ve
=13-	=13-	=13-
2r	.	.
*	*	*ij
1G	.	A-
!LO:TX:t=P:problem:kreska pseudotaktowa	!	!
2F\	.	-ve
*	*	*Xij
=14-	=14-	=14-
1G	.	Ma-
1D	.	-ri-
=15-	=15-	=15-
!LO:TX:t=P:problem:kreska pseudotaktowa	!	!
0GG,<	.	-a
!LO:LB:g=original	!	!
=16-	=16-	=16-
2r	.	.
1D	.	gra-
2C/	.	-ti-
=17-	=17-	=17-
!LO:TX:t=P:problem:kreska pseudotaktowa	!	!
1BBn	.	-a
*lig	*	*
1AA	.	ple-
=18-	=18-	=18-
1D	.	.
*Xlig	*	*
2GG,</	.	-na
!LO:TX:t=P:problem:kreska pseudotaktowa	!	!
2G\	.	gra-
=19-	=19-	=19-
2D\	.	.
1F	.	-ti-
!LO:TX:t=P:problem:kreska pseudotaktowa	!	!
2E\	.	.
=20-	=20-	=20-
1D,<	.	-a
4C/	.	ple-
4D/	.	.
4E/	.	.
!LO:TX:t=P:problem:kreska pseudotaktowa	!	!
4F/	.	.
=21-	=21-	=21-
2G\	.	.
!LO:TX:t=P:problem:kreska pseudotaktowa	!	!
2GG/	.	.
4AA/	.	.
4BB/	.	.
4C/	.	.
!LO:TX:t=P:problem:kreska pseudotaktowa	!	!
4D/	.	.
=22-	=22-	=22-
2E\	.	.
2C/	.	.
0D	.	.
=23-	=23-	=23-
.	.	.
!LO:TX:t=P:problem:kreska pseudotaktowa	!	!
0GG,<	.	-na
=24-	=24-	=24-
.	.	.
1r	.	.
=25-	=25-	=25-
!LO:TX:t=P:problem:kreska pseudotaktowa	!	!
0C	.	Do-
=26-	=26-	=26-
*lig	*	*
1G	.	-mi-
1A	.	.
*Xlig	*	*
=27-	=27-	=27-
2G\	.	-n(us)
2E\	.	.
!LO:LB:g=original	!	!
1F	.	Te-
=28-	=28-	=28-
2E\	.	.
!LO:TX:t=P:problem:kreska pseudotaktowa	!	!
2D\	.	.
2C/	.	.
1F\	.	.
=29-	=29-	=29-
.	.	.
!LO:TX:t=P:problem:kreska pseudotaktowa	!	!
2D\	.	.
1A	.	.
=30-	=30-	=30-
!LO:TX:t=P:problem:kreska pseudotaktowa	!	!
1D,<	.	-cum
2r	.	.
!LO:TX:t=P:problem:kreska pseudotaktowa	!	!
2G\	.	Do-
=31-	=31-	=31-
2E\	.	-mi-
!LO:TX:t=P:problem:kreska pseudotaktowa	!	!
2F\	.	-n(us)
1G	.	Te-
=32-	=32-	=32-
2C/	.	.
!LO:TX:t=P:problem:kreska pseudotaktowa	!	!
2D/	.	.
*lig	*	*
1E	.	.
=33-	=33-	=33-
1D	.	.
*Xlig	*	*
!LO:TX:t=P:problem:kreska pseudotaktowa	!	!
1GG	.	-cum
=34-	=34-	=34-
2rC	.	.
1C	.	be-
!LO:TX:t=P:problem:kreska pseudotaktowa	!	!
2C/	.	-ne-
=35-	=35-	=35-
2C/	.	-dic-
2C/	.	-ta
!LO:TX:t=P:problem:kreska pseudotaktowa	!	!
0AA,<	.	tu
=36-	=36-	=36-
.	.	.
1D	.	in
=37-	=37-	=37-
2G\	.	mu-
2GG/	.	-li-
2AA/	.	-e-
2BB/	.	-ri-
!LO:LB:g=original	!	!
=38-	=38-	=38-
1C,<	.	-bus
2D/	.	be-
2BB/	.	-ne-
=39-	=39-	=39-
!LO:TX:t=P:problem:kreska pseudotaktowa	!	!
1AA	.	-di-
1D	.	.
=40-	=40-	=40-
2GG/	.	.
1C	.	.
2AA/	.	.
=41-	=41-	=41-
!LO:TX:t=P:problem:kreska pseudotaktowa	!	!
1D	.	-cta
2GG,</	.	tu
2.C/	.	in
=42-	=42-	=42-
.	.	.
4D/	.	.
!LO:TX:t=P:problem:kreska pseudotaktowa	!	!
2E\	.	mu-
2C/	.	-li-
1C/	.	-e-
=43-	=43-	=43-
.	.	.
2GG/	.	-ri-
1D,<	.	-bus
=44-	=44-	=44-
!LO:TX:t=P:problem:kreska pseudotaktowa	!	!
1C	.	in
2G\	.	mu-
2E\	.	-li-
=45-	=45-	=45-
*lig	*	*
1F	.	-e-
!LO:TX:t=P:problem:kreska pseudotaktowa	!	!
1E	.	.
*Xlig	*	*
=46-	=46-	=46-
2.D/	.	.
4D/	.	-ri-
!LO:TX:t=P:problem:kreska pseudotaktowa	!	!
1AA	.	-bus
=47-	=47-	=47-
2rC	.	.
!LO:TX:t=P:problem:kreska pseudotaktowa	!	!
2GG/	.	in
2C/	.	mu-
2E\	.	-li-
=48-	=48-	=48-
2.D/	.	-e-
4C/	.	.
!LO:LB:g=original	!	!
4BB/	.	.
4AA/	.	.
2GG/	.	.
=49-	=49-	=49-
1.D	.	.
!LO:TX:t=P:problem:kreska pseudotaktowa	!	!
2D\	.	-ri-
=50-	=50-	=50-
2GG,</	.	-bus
2GG/	.	in
2C/	.	mu-
2BB/	.	-li-
=51-	=51-	=51-
1.C	.	-e-
2C/	.	-ri-
=52-	=52-	=52-
!LO:TX:b:Bi:t=Alleluja da Capo	!	!
0GGl;	.	-bus.
==	==	==
*-	*-	*-
!!!RDF**kern: < = below
!!!RDF**kern: l = terminal long
!!!ENC: Berenika Jozajtis
!!!END: 2021-03-10
!!!ENC: Marta Lawrence
!!!END: 2021-03-28
